X:3
T:Menuette ur en Menuette- och Pollonessebok
T:(SmM IX-3)
O:Odensjö, Småland
B:Småländsk Musiktradition
B:Menuette- och Pollonessebok
N:Smus MMD33, mitten 1700-talet.
R:Menuett
Q:1/4=130
M:3/4
L:1/8
K:D
D2 FF AA|d2 ((3edc) d2|B2 ((3Bcd) ((3efg)|A3 G F2|d4 df|fe dc BA|Ed c2 B2|{B}A6:|
|:A2 a2 a2|((3bag) ((3fga) g2|A2 g2 g2|((3agf) ((3efg) f2|A3 Bcd|eg ec dA|((3BAG) ((3FED) ((3EDC)|{C}D6:|

